assets/emojis/FacewithTongue.svg

<svg width="126" height="125" viewBox="0 0 126 125" fill="none" xmlns="http://www.w3.org/2000/svg">
<circle cx="62.874" cy="62.3496" r="62.3496" fill="#F9B42F"/>
<path opacity="0.3" fill-rule="evenodd" clip-rule="evenodd" d="M114.941 97.122C103.619 108.713 87.8168 115.909 70.3339 115.909C35.8992 115.909 7.98431 87.9939 7.98431 53.5592C7.98431 40.1636 12.2088 27.7546 19.3981 17.5918C8.4204 28.8309 1.65527 44.2027 1.65527 61.1546C1.65527 95.5893 29.5701 123.504 64.0049 123.504C85.0439 123.504 103.649 113.084 114.941 97.122Z" fill="#BC8417"/>
<path d="M37.6148 52.3351C40.2698 52.3351 42.422 50.1828 42.422 47.5279C42.422 44.873 40.2698 42.7207 37.6148 42.7207C34.9599 42.7207 32.8076 44.873 32.8076 47.5279C32.8076 50.1828 34.9599 52.3351 37.6148 52.3351Z" fill="#2C2A46"/>
<path d="M88.2545 52.3351C90.9094 52.3351 93.0617 50.1828 93.0617 47.5279C93.0617 44.873 90.9094 42.7207 88.2545 42.7207C85.5995 42.7207 83.4473 44.873 83.4473 47.5279C83.4473 50.1828 85.5995 52.3351 88.2545 52.3351Z" fill="#2C2A46"/>
<path d="M63.1686 75.0191C61.189 75.0156 59.2148 74.814 57.2754 74.4174V77.9569C57.2613 78.7513 57.4056 79.5406 57.6998 80.2786C57.9941 81.0167 58.4325 81.6887 58.9894 82.2554C59.5462 82.8222 60.2104 83.2723 60.9432 83.5795C61.6759 83.8868 62.4626 84.0449 63.2571 84.0448C64.0426 84.0448 64.8205 83.8901 65.5462 83.5895C66.272 83.2889 66.9314 82.8483 67.4868 82.2928C68.0423 81.7373 68.4829 81.0779 68.7835 80.3522C69.0841 79.6264 69.2389 78.8486 69.2389 78.0631V73.9658C67.2387 74.3453 65.2039 75.0691 63.1686 75.0191Z" fill="#FF5A60"/>
<path d="M63.1704 75.0192H62.374V78.2047C62.374 78.4394 62.4673 78.6645 62.6332 78.8304C62.7991 78.9964 63.0242 79.0896 63.2589 79.0896C63.4936 79.0896 63.7187 78.9964 63.8846 78.8304C64.0505 78.6645 64.1438 78.4394 64.1438 78.2047V75.0015L63.1704 75.0192Z" fill="#E93A40"/>
<path d="M63.1707 75.019C55.8262 75.019 49.5436 72.4706 47.5438 68.6656C47.3461 68.2595 47.3111 67.7933 47.446 67.3623C47.5809 66.9312 47.8755 66.5681 48.2694 66.3472C48.4749 66.2358 48.7004 66.1661 48.9329 66.1423C49.1654 66.1185 49.4003 66.141 49.6241 66.2084C49.8478 66.2759 50.056 66.387 50.2366 66.5354C50.4172 66.6837 50.5667 66.8664 50.6763 67.0728C51.8089 69.2496 56.5872 71.5503 63.1707 71.5503C69.7542 71.5503 74.8333 69.1611 75.7713 66.8428C75.8596 66.6266 75.9896 66.43 76.1539 66.2641C76.3183 66.0982 76.5136 65.9663 76.7289 65.8759C76.9442 65.7855 77.1752 65.7384 77.4086 65.7373C77.6421 65.7362 77.8735 65.7811 78.0897 65.8694C78.3058 65.9577 78.5024 66.0877 78.6683 66.252C78.8342 66.4163 78.9661 66.6117 79.0565 66.827C79.1469 67.0423 79.194 67.2732 79.1951 67.5067C79.1962 67.7402 79.1514 67.9716 79.063 68.1878C77.3818 72.1874 70.8514 75.019 63.1707 75.019Z" fill="#2C2A46"/>
</svg>

<svg xmlns="http://www.w3.org/2000/svg" width="126" height="125" fill="none" viewBox="0 0 126 125"><circle cx="62.874" cy="62.35" r="62.35" fill="#f9b42f"/><path fill="#bc8417" fill-rule="evenodd" d="M114.941 97.122c-11.322 11.591-27.124 18.787-44.607 18.787-34.435 0-62.35-27.915-62.35-62.35 0-13.395 4.225-25.804 11.414-35.967C8.42 28.83 1.655 44.202 1.655 61.155c0 34.434 27.915 62.349 62.35 62.349 21.039 0 39.644-10.42 50.936-26.382" clip-rule="evenodd" opacity=".3"/><path fill="#2c2a46" d="M37.615 52.335a4.807 4.807 0 1 0 0-9.614 4.807 4.807 0 0 0 0 9.614m50.64 0a4.807 4.807 0 1 0 0-9.614 4.807 4.807 0 0 0 0 9.614"/><path fill="#ff5a60" d="M63.169 75.02a29.7 29.7 0 0 1-5.894-.603v3.54a5.983 5.983 0 1 0 11.964.106v-4.097c-2 .38-4.035 1.103-6.07 1.053"/><path fill="#e93a40" d="M63.17 75.02h-.796v3.185a.885.885 0 0 0 1.77 0V75z"/><path fill="#2c2a46" d="M63.17 75.019c-7.344 0-13.626-2.548-15.626-6.353a1.77 1.77 0 0 1 .725-2.319 1.77 1.77 0 0 1 2.407.726c1.133 2.177 5.911 4.477 12.495 4.477s11.662-2.389 12.6-4.707a1.777 1.777 0 1 1 3.292 1.345c-1.681 4-8.212 6.831-15.892 6.831"/></svg>
